!!!!SEGMENT: pl-kk--kk-i-1--007-005_anonim--missa-mater-matris-agnus-dei.krn
!!!cenid: 15xx:687
!!!COM: Anonim
!!!COM-rismID: pe30004985
!!!CDT:
!!!CNT:
!!!OPR: Missa Mater matris
!!!OTL: Agnus Dei
!!!OMV: 005
!!!PDT:
!!!AGN:
!!!SMS-siglum: PL-Kk
!!!SMS-shelfmark: Kk.I.1
!!!SMS-shelfwork: 007-005 M
!!!SMS-variant:
!!!SMS-altvar:
!!!NIFC-rismSourceID: 300257961
!!!NIFC-islandoraID: pl-kk:1
!!!URL-pdf-islandora: https://repozytorium.nifc.pl/islandora/object/pl-kk%3A1/datastream/PDF/view
!!!URL-scan: https://polish.musicsources.pl/pl/lokalizacje/galeria/rekopisy/5736 @EN{Scan on Polish Music Sources Website} @PL{Skany w portalu Dziedzictwo Muzyki Polskiej w otwartym dostępie}
!!!ONB-nifc: UWAGA: Cantus (s. 52v-59r, skan 0055-0061), Altus (s. 52v-59v, skan 0245-0252), Tenor (s. 51r-58r, skan 0439-0446), Bassus (s. 51r-58r, skan 0612-0619). Części Mszy: 1. Kyrie, 2. Et in terra, 3. Patrem, 4. Sanctus, 5. Agnus Dei
!!!AIN: 1 alto 1 bass 1 soprn 2 tenor
!!!key:
**kern	**text	**kern	**text	**kern	**text	**kern	**text	**kern	**text
*part5	*part5	*part4	*part4	*part3	*part3	*part2	*part2	*part1	*part1
*staff5	*staff5	*staff4	*staff4	*staff3	*staff3	*staff2	*staff2	*staff1	*staff1
*I"BASSVS	*	*I"[TENOR II]	*	*I"TENOR	*	*I"ALTVS	*	*I"CANTVS	*
*I'B	*	*I'[T II]	*	*I'T	*	*I'A	*	*I'C	*
*Ibass	*	*Itenor	*	*Itenor	*	*Ialto	*	*Isoprn	*
*ICvox	*	*ICvox	*	*ICvox	*	*ICvox	*	*ICvox	*
*clefF4	*	*clefC4	*	*clefC4	*	*clefC4	*	*clefC3	*
*k[b-]	*	*k[b-]	*	*k[b-]	*	*k[b-]	*	*k[b-]	*
*d:	*	*d:	*	*d:	*	*d:	*	*d:	*
*M2/1	*	*M2/1	*	*M2/1	*	*M2/1	*	*M2/1	*
*met(C|)	*	*met(C|)	*	*met(C|)	*	*met(C|)	*	*met(C|)	*
=1-	=1-	=1-	=1-	=1-	=1-	=1-	=1-	=1-	=1-
*all\right	*	*all\right	*	*all\right	*	*all\right	*	*all\right	*
!LO:TX:a:t=12	!	!	!	!	!	!	!	!	!
00r	.	0ryy	.	00r	.	00r	.	0G/	A-
=2-	=2-	=2-	=2-	=2-	=2-	=2-	=2-	=2-	=2-
!	!	!	!	!	!	!	!	!LO:TX:t=P:problem=kreska pseudotaktowa	!
.	.	0ryy	.	.	.	.	.	1G/	.
.	.	.	.	.	.	.	.	1F/	-gnus
=3-	=3-	=3-	=3-	=3-	=3-	=3-	=3-	=3-	=3-
00r	.	0ryy	.	0G/	A-	00r	.	1.B-/	.
!	!	!	!	!	!	!	!	!LO:TX:t=P:problem=kreska pseudotaktowa	!
.	.	.	.	.	.	.	.	2G/	de-
=4-	=4-	=4-	=4-	=4-	=4-	=4-	=4-	=4-	=4-
.	.	0ryy	.	1G/	-gnus	.	.	1B-/	-i
.	.	.	.	1F/	.	.	.	1c\	.
=5-	=5-	=5-	=5-	=5-	=5-	=5-	=5-	=5-	=5-
!	!	!	!	!	!	!	!	!LO:TX:t=P:problem=kreska pseudotaktowa	!
00r	.	0ryy	.	1.B-\	de-	0G/	A-	1d\	.
.	.	.	.	.	.	.	.	2G/	.
.	.	.	.	2G/	-i	.	.	1d\	.
=6-	=6-	=6-	=6-	=6-	=6-	=6-	=6-	=6-	=6-
.	.	0ryy	.	1B-\	.	1G/	-gnus	.	.
.	.	.	.	.	.	.	.	4c/	.
!	!	!	!	!	!	!	!	!LO:TX:t=P:problem=kreska pseudotaktowa	!
.	.	.	.	.	.	.	.	4B-/	.
.	.	.	.	1c\	.	1F/	.	1A/	.
=7-	=7-	=7-	=7-	=7-	=7-	=7-	=7-	=7-	=7-
*2\right	*	*	*	*	*	*	*	*	*
!	!	!	!	!	!	!	!	!LO:TX:t=P:problem=kreska pseudotaktowa	!
2.G\	A-	0ryy	.	1d\	.	1.B-\	de-	1G/	.
!LO:TX:t=P:problem=kreska pseudotaktowa	!	!	!	!	!	!	!	!	!
4F\	-gnus	.	.	.	.	.	.	.	.
4G\	.	.	.	1d\	.	.	.	1r	.
4A\	.	.	.	.	.	.	.	.	.
2.B-\	de-	.	.	.	.	2G/	-i	.	.
=8-	=8-	=8-	=8-	=8-	=8-	=8-	=8-	=8-	=8-
.	.	0ryy	.	1r	.	1B-\	.	1r	.
4A\	-i	.	.	.	.	.	.	.	.
4G\	.	.	.	.	.	.	.	.	.
!LO:TX:t=P:problem=kreska pseudotaktowa	!	!	!	!	!	!	!	!	!
4F\	.	.	.	.	.	.	.	.	.
1E\	.	.	.	1G/	qui	1c\	.	1g\	a-
=9-	=9-	=9-	=9-	=9-	=9-	=9-	=9-	=9-	=9-
!	!	!	!	!	!	!	!	!LO:TX:t=P:problem=kreska pseudotaktowa	!
1D\	.	0ryy	.	1A\	.	0d\	.	1f\	-gnus
1G\	qui	.	.	1B-\	.	.	.	1b-\	de-
=10-	=10-	=10-	=10-	=10-	=10-	=10-	=10-	=10-	=10-
!LO:TX:t=P:problem=kreska pseudotaktowa	!	!	!	!	!	!	!	!	!
1F\	tol-	0ryy	.	2c/	tol-	1r	.	1a\	-i
.	.	.	.	2A/	.	.	.	.	.
1E\	-lis	.	.	2B-/	-lis	1G/	qui	1g\	qui
.	.	.	.	2c/	.	.	.	.	.
=11-	=11-	=11-	=11-	=11-	=11-	=11-	=11-	=11-	=11-
!	!	!	!	!	!	!	!	!LO:TX:t=P:problem=kreska pseudotaktowa	!
1D\	.	0ryy	.	0d\	.	1A\	.	1f\	.
1G\	.	.	.	.	.	1B-\	tol-	1b-\	tol-
=12-	=12-	=12-	=12-	=12-	=12-	=12-	=12-	=12-	=12-
*	*	*	*	*	*	*2\right	*	*2\right	*
!LO:TX:t=P:problem=kreska pseudotaktowa	!	!	!	!	!	!	!	!	!
1F\	.	0ryy	.	0r	.	2c\	-lis	2a\	-lis
.	.	.	.	.	.	2A/	.	2f\	.
1E\	.	.	.	.	.	2B-/	.	1g\	.
.	.	.	.	.	.	2c\	.	.	.
=13-	=13-	=13-	=13-	=13-	=13-	=13-	=13-	=13-	=13-
!LO:TX:t=P:problem=kreska pseudotaktowa	!	!	!	!	!	!	!	!LO:TX:t=P:problem=kreska pseudotaktowa	!
0D\	.	0ryy	.	1r	.	1d\	.	0f\	.
.	.	.	.	1D/	.	1d\	.	.	.
=14-	=14-	=14-	=14-	=14-	=14-	=14-	=14-	=14-	=14-
1r	.	0ryy	.	1E/	pec-	0r	.	1r	.
1D\	p(e)c-	.	.	1F/	-ca-	.	.	1f\	pec-
=15-	=15-	=15-	=15-	=15-	=15-	=15-	=15-	=15-	=15-
*	*	*	*	*	*	*	*	*custos:d	*
!LO:TX:t=P:problem=kreska pseudotaktowa	!	!	!	!	!	!	!	!	!
1C/	-(ca)-	0ryy	.	2G/	-ta	1r	.	1e\	-ca-
.	.	.	.	2E/	.	.	.	.	.
!	!	!	!	!	!	!	!	!LO:LB:g=original	!
1BB-/	-ta	.	.	2F/	mun:	1D/	p(e)c-	1d\	.
*	*	*	*	*custos:A	*	*	*	*	*
.	.	.	.	2G/	.	.	.	.	.
!	!	!	!	!LO:PB:g=original	!	!	!	!	!
=16-	=16-	=16-	=16-	=16-	=16-	=16-	=16-	=16-	=16-
!	!	!	!	!	!	!	!	!LO:TX:t=P:problem=kreska pseudotaktowa	!
1AA/	mun-	0ryy	.	0A\	.	1E/	-(ca)-	1c\	-ta
*	*	*	*	*	*	*custos:G	*	*	*
1D\	.	.	.	.	.	1F/	-ta	1f\	mun-
!	!	!	!	!	!	!LO:LB:g=original	!	!	!
=17-	=17-	=17-	=17-	=17-	=17-	=17-	=17-	=17-	=17-
*custos:B-	*	*	*	*	*	*	*	*	*
!LO:TX:t=P:problem=kreska pseudotaktowa	!	!	!	!	!	!	!	!	!
1C/	-di	0ryy	.	0r	.	2G/	.	1e\	.
.	.	.	.	.	.	2E/	mun-	.	.
!LO:LB:g=original	!	!	!	!	!	!	!	!	!
1BB-/	.	.	.	.	.	2F/	.	1d\	-di
.	.	.	.	.	.	2G/	-di	.	.
=18-	=18-	=18-	=18-	=18-	=18-	=18-	=18-	=18-	=18-
!	!	!	!	!	!	!	!	!LO:TX:t=P:problem=kreska pseudotaktowa	!
1AA/	.	0ryy	.	1r	.	0A\	.	1c\	.
1D\	.	.	.	1F/	.	.	.	1f\	.
=19-	=19-	=19-	=19-	=19-	=19-	=19-	=19-	=19-	=19-
2C/	.	0ryy	.	1G/	.	0r	.	2e\	.
!LO:TX:t=P:problem=kreska pseudotaktowa	!	!	!	!	!	!	!	!	!
2BB-/	.	.	.	.	.	.	.	1d\	.
1AA/	.	.	.	1A\	.	.	.	.	.
!	!	!	!	!	!	!	!	!LO:TX:t=P:problem=kreska pseudotaktowa	!
.	.	.	.	.	.	.	.	2c/	.
=20-	=20-	=20-	=20-	=20-	=20-	=20-	=20-	=20-	=20-
1GG/	.	0ryy	.	2B-/	.	1r	.	1d\	.
.	.	.	.	2G/	.	.	.	.	.
1D\	.	.	.	2A/	.	1F/	.	1f\	.
.	.	.	.	2B-/	.	.	.	.	.
=21-	=21-	=21-	=21-	=21-	=21-	=21-	=21-	=21-	=21-
!LO:TX:t=P:problem=kreska pseudotaktowa	!	!	!	!	!	!	!	!LO:TX:t=P:problem=kreska pseudotaktowa	!
1C/	.	0ryy	.	0c\	.	1G/	.	1e\	.
1F\	.	.	.	.	.	1A\	.	1a\	.
=22-	=22-	=22-	=22-	=22-	=22-	=22-	=22-	=22-	=22-
2G\	.	0ryy	.	0r	.	2B-/	.	1g\	.
2E/	.	.	.	.	.	2G/	.	.	.
!	!	!	!	!	!	!	!	!LO:TX:t=P:problem=kreska pseudotaktowa	!
1D\	.	.	.	.	.	2A/	.	1f\	.
.	.	.	.	.	.	2B-/	.	.	.
=23-	=23-	=23-	=23-	=23-	=23-	=23-	=23-	=23-	=23-
!LO:TX:t=P:problem=kreska pseudotaktowa	!	!	!	!	!	!	!	!	!
1C/	.	0ryy	.	1r	.	0c\	.	1e\	.
1F\	.	.	.	1A\	mi-	.	.	1a\	.
=24-	=24-	=24-	=24-	=24-	=24-	=24-	=24-	=24-	=24-
1G\	mi-	0ryy	.	1B-\	-ſe-	0r	.	1g\	.
1E\	-ſe-	.	.	1c\	-re-	.	.	1g\	.
=25-	=25-	=25-	=25-	=25-	=25-	=25-	=25-	=25-	=25-
!LO:TX:t=P:problem=kreska pseudotaktowa	!	!	!	!	!	!	!	!	!
1D\	-re-	0ryy	.	0d\	-re	1r	.	0f\	mi-
1F\	-re	.	.	.	.	1A\	mi-	.	.
=26-	=26-	=26-	=26-	=26-	=26-	=26-	=26-	=26-	=26-
!	!	!	!	!	!	!	!	!LO:TX:t=P:problem=kreska pseudotaktowa	!
0E\	no-	0ryy	.	0G/	no-	1B-\	-ſe-	0g\	-ſe-
.	.	.	.	.	.	1c\	-re-	.	.
=27-	=27-	=27-	=27-	=27-	=27-	=27-	=27-	=27-	=27-
1.D\	-bis	0ryy	.	1A\	-bis	0d\	-re	1f\	-re-
.	.	.	.	1d\	.	.	.	1f\	-re
!LO:TX:t=P:problem=kreska pseudotaktowa	!	!	!	!	!	!	!	!	!
2BB-/	.	.	.	.	.	.	.	.	.
=28-	=28-	=28-	=28-	=28-	=28-	=28-	=28-	=28-	=28-
*	*	*	*	*2\right	*	*	*	*	*
2C/	.	0ryy	.	2c\	.	0G/	no-	2e\	.
2D/	.	.	.	1B-\	.	.	.	1d\	no-
1E\	.	.	.	.	.	.	.	.	.
.	.	.	.	4A/	.	.	.	2c/	-bis
.	.	.	.	4G/	.	.	.	.	.
=29-	=29-	=29-	=29-	=29-	=29-	=29-	=29-	=29-	=29-
*custos:G	*	*	*	*custos:G	*	*custos:G	*	*custos:d	*
0D\l	.	0ryy	.	0F/l	.	0A\l	-bis	0d\;l	.
!LO:LB:g=original	!	!	!	!LO:LB:g=original	!	!LO:LB:g=original	!	!LO:PB:g=original	!
*	*	*	*	*	*	*clefC3	*	*	*
=30||	=30-	=30-	=30-	=30-	=30-	=30-	=30-	=30-	=30-
!LO:TX:t=P::problem=cyfra błędna&colon; powinno być 12	!	!LO:TX:t=P:problem=głos zanotowany na karcie 58 (zdj 0446)\nucięty brzeg strony i adnotacja Teno[r secundus]\na5	!	!LO:TX:a:t=[Teno]r pri(mus)\n [a] 5 vocib(us)	!	!	!	!	!
!LO:TX:a:t=2	!	!	!	!	!	!	!	!	!
00r	.	0.G/	A-	00r	.	0G/	.	1d\	A-
.	.	.	.	.	.	.	.	2G/	-gnus
.	.	.	.	.	.	.	.	1d\	.
=31-	=31-	=31-	=31-	=31-	=31-	=31-	=31-	=31-	=31-
.	.	.	.	.	.	1B-/	A-	.	.
.	.	.	.	.	.	.	.	4c/	.
!	!	!	!	!	!	!	!	!LO:TX:t=P:problem=kreska pseudotaktowa	!
.	.	.	.	.	.	.	.	4B-/	de-
.	.	1F/	.	.	.	1c\	-gnus	1A/	-i
=32-	=32-	=32-	=32-	=32-	=32-	=32-	=32-	=32-	=32-
00r	.	1.B-\	-gnus	00r	.	2d/	.	2G/	.
!	!	!	!	!	!	!	!	!LO:TX:t=P:problem=kreska pseudotaktowa	!
.	.	.	.	.	.	2G/	de-	2d/	.
.	.	.	.	.	.	1.d\	-i	2G/	.
.	.	2G/	de-	.	.	.	.	1d\	.
=33-	=33-	=33-	=33-	=33-	=33-	=33-	=33-	=33-	=33-
.	.	1B-\	-i	.	.	.	.	.	.
.	.	.	.	.	.	2e\	.	4c/	.
!	!	!	!	!	!	!	!	!LO:TX:t=P:problem=kreska pseudotaktowa	!
.	.	.	.	.	.	.	.	4B-/	.
.	.	1c\	.	.	.	1f\	.	1A/	.
=34-	=34-	=34-	=34-	=34-	=34-	=34-	=34-	=34-	=34-
!	!	!	!	!	!	!	!	!LO:TX:t=P:problem=kreska pseudotaktowa	!
00r	.	1d\	.	0G/	A-	1g\	.	1G/	.
.	.	2r	.	.	.	2G/	.	1.d\	.
.	.	1d\	.	.	.	1B-/	.	.	.
=35-	=35-	=35-	=35-	=35-	=35-	=35-	=35-	=35-	=35-
.	.	.	.	1G/	-gnus	.	.	.	.
!	!	!	!	!	!	!	!	!LO:TX:t=P:problem=kreska pseudotaktowa	!
.	.	4c\	.	.	.	4A/	.	2e\	.
.	.	4B-\	.	.	.	4G/	.	.	.
.	.	1A\	.	1F/	.	2A/	.	1f\	.
.	.	.	.	.	.	2c/	.	.	.
=36-	=36-	=36-	=36-	=36-	=36-	=36-	=36-	=36-	=36-
!	!	!	!	!	!	!	!	!LO:TX:t=P:problem=kreska pseudotaktowa	!
2.G\	A-	1G/	.	1.B-\	de-	2B-/	.	1g\	.
.	.	.	.	.	.	4G/	.	.	.
4F\	.	.	.	.	.	4A/	.	.	.
4G\	-gnus	1r	.	.	.	4B-/	.	0G/	.
4A\	.	.	.	.	.	4c/	.	.	.
2.B-\	de-	.	.	2G/	-i	2d/	.	.	.
=37-	=37-	=37-	=37-	=37-	=37-	=37-	=37-	=37-	=37-
.	.	1r	.	1B-\	.	1G/	.	.	.
4A\	-i	.	.	.	.	.	.	.	.
4G\	.	.	.	.	.	.	.	.	.
!LO:TX:t=P:problem=kreska pseudotaktowa	!	!	!	!	!	!	!	!	!
4F\	.	.	.	.	.	.	.	.	.
!	!	!	!	!	!	!	!	!LO:TX:t=P:problem=kreska pseudotaktowa	!
1E\	.	2r	.	1c\	.	1G/	qui	1g\	.
.	.	2C/	.	.	.	.	.	.	.
=38-	=38-	=38-	=38-	=38-	=38-	=38-	=38-	=38-	=38-
1.D\	.	2.F/	.	0d\	.	1.A/	.	1.f\	.
.	.	4E/	.	.	.	.	.	.	.
.	.	2F/	.	.	.	.	.	.	.
!LO:TX:t=P:problem=kreska pseudotaktowa	!	!	!	!	!	!	!	!	!
2GG/	.	2G/	.	.	.	2B-/	tol:	4e\	.
!	!	!	!	!	!	!	!	!LO:TX:t=P:problem=kreska pseudotaktowa	!
.	.	.	.	.	.	.	.	4d\	.
=39-	=39-	=39-	=39-	=39-	=39-	=39-	=39-	=39-	=39-
*	*	*	*	*	*	*custos:B-	*	*	*
2D/	.	2F/	.	1r	.	2A/	.	2f\	.
*	*	*	*	*	*	*	*	*custos:g	*
!	!	!	!	!	!	!LO:PB:g=original	!	!LO:TX:t=P:problem=kreska pseudotaktowa	!
1GG/	.	1G/	.	.	.	1B-/	.	2d\	.
!	!	!	!	!	!	!	!	!LO:LB:g=original	!
.	.	.	.	1d\	.	.	.	1g\	.
2GG/	.	4F/	.	.	.	4A/	.	.	.
.	.	4E/	.	.	.	4G/	.	.	.
=40-	=40-	=40-	=40-	=40-	=40-	=40-	=40-	=40-	=40-
1.D\	.	2.D/	.	1d\	.	2.F/	.	2a\	.
.	.	.	.	.	.	.	.	1f\	.
.	.	4E/	.	.	.	4G/	.	.	.
.	.	4F/	.	1d\	.	2A/	.	.	.
.	.	4D/	.	.	.	.	.	.	.
2GG/	.	1G/	.	.	.	1B-/	.	4e\	.
!	!	!	!	!	!	!	!	!LO:TX:t=P:problem=kreska pseudotaktowa	!
.	.	.	.	.	.	.	.	4d\	.
=41-	=41-	=41-	=41-	=41-	=41-	=41-	=41-	=41-	=41-
!LO:TX:t=P:problem=kreska pseudotaktowa	!	!	!	!	!	!	!	!	!
1GG/	.	.	.	1.d\	.	.	.	1g\	.
.	.	4F/	.	.	.	4A/	.	.	.
*	*	*custos:G	*	*	*	*	*	*	*
!	!	!LO:TX:b:t=Teno[r secundus]\na5	!	!	!	!	!	!	!
.	.	4E/	.	.	.	4G/	.	.	.
!	!	!LO:LB:g=original	!	!	!	!	!	!	!
2r	.	2G/	.	.	.	2B-/	.	2d/	.
2.C/	.	2C/	.	2.c\	.	2.A/	.	2e/	.
=42-	=42-	=42-	=42-	=42-	=42-	=42-	=42-	=42-	=42-
!	!	!	!	!	!	!	!	!LO:TX:t=P:problem=kreska pseudotaktowa	!
.	.	1E/	.	.	.	.	.	1c\	.
4D/	.	.	.	4B-/	.	4G/	.	.	.
!LO:TX:t=P:problem=kreska pseudotaktowa	!	!	!	!	!	!	!	!	!
2E\	.	.	.	4A/	.	1g\	.	.	.
.	.	.	.	4G/	.	.	.	.	.
2F\	.	1D/	.	1A\	.	.	.	1d\	.
2D/	.	.	.	.	.	2f\	.	.	.
=43-	=43-	=43-	=43-	=43-	=43-	=43-	=43-	=43-	=43-
1GG/	.	1r	.	1G/	.	2g\	.	1B-/	.
.	.	.	.	.	.	1d\	.	.	.
1D\	.	1F/	A-	1r	.	.	.	1A/	.
.	.	.	.	.	.	2c/	.	.	.
=44-	=44-	=44-	=44-	=44-	=44-	=44-	=44-	=44-	=44-
*custos:GG	*	*	*	*	*	*	*	*	*
!LO:TX:t=P:problem=kreska pseudotaktowa	!	!	!	!	!	!	!	!	!
1GG/	.	1G/	-gnus	0r	.	2B-/	.	2G/	.
!	!	!	!	!	!	!	!	!LO:TX:t=P:problem=kreska pseudotaktowa	!
.	.	.	.	.	.	4A/	.	2B-/	.
.	.	.	.	.	.	4G/	.	.	.
!LO:LB:g=original	!	!	!	!	!	!	!	!	!
1r	.	1A\	.	.	.	2F/	.	1A/	.
.	.	.	.	.	.	2c/	a-	.	.
=45-	=45-	=45-	=45-	=45-	=45-	=45-	=45-	=45-	=45-
1GG/	.	1B-\	de-	1r	.	1d\	-gnus	1G/	.
!LO:TX:t=P:problem=kreska pseudotaktowa	!	!	!	!	!	!	!	!LO:TX:t=P:problem=kreska pseudotaktowa	!
1C/	.	1G/	-i	2r	.	1e\	.	1r	.
.	.	.	.	2G/	.	.	.	.	.
=46-	=46-	=46-	=46-	=46-	=46-	=46-	=46-	=46-	=46-
2FF/	.	2.F/	qui	1A\	.	1f\	de-	1c\	a-
2.F\	.	.	.	.	.	.	.	.	.
.	.	4E/	.	.	.	.	.	.	.
.	.	2D/	tol-	2r	.	4F/	-i	1d\	-gnus
4D/	.	.	.	.	.	4G/	qui	.	.
!LO:TX:t=P:problem=kreska pseudotaktowa	!	!	!	!	!	!	!	!	!
2F\	.	2D/	-lis	2F/	.	4A/	.	.	.
*	*	*	*	*	*	*custos:A	*	*	*
.	.	.	.	.	.	4B-/	.	.	.
!	!	!	!	!	!	!LO:LB:g=original	!	!	!
=47-	=47-	=47-	=47-	=47-	=47-	=47-	=47-	=47-	=47-
*Xbrackettup	*	*	*	*	*	*	*	*	*
!LO:TUP:b	!	!	!	!	!	!	!	!LO:TX:t=P:problem=kreska pseudotaktowa	!
3E/	.	1C/	.	1G/	.	1c\	.	1e\	de-
3C/	.	.	.	.	.	.	.	.	.
3E/	.	.	.	.	.	.	.	.	.
!LO:TUP:b	!	!	!	!	!	!	!	!LO:TX:t=P:problem=kreska pseudotaktowa	!
3.D/	.	1D/	.	1F/	.	2A/	.	1f\	-i
6C/	.	.	.	.	.	1B-/	tol-	.	.
!LO:TX:t=P:problem=kreska pseudotaktowa	!	!	!	!	!	!	!	!	!
3D/	.	.	.	.	.	.	.	.	.
=48-	=48-	=48-	=48-	=48-	=48-	=48-	=48-	=48-	=48-
1GG/	qui	1G/	.	2r	.	.	.	2r	.
*	*	*	*	*custos:A	*	*	*	*	*
.	.	.	.	2B-/	qui	4A/	-lis	1d\	qui
.	.	.	.	.	.	4G/	.	.	.
!	!	!	!	!LO:LB:g=original	!	!	!	!	!
2D/	.	2F/	.	2A/	.	2A/	.	.	.
!LO:TX:t=P:problem=kreska pseudotaktowa	!	!	!	!	!	!	!	!	!
2GG/	tol-	2G/	.	2G/	tol-	1B-/	.	1e\	tol-
=49-	=49-	=49-	=49-	=49-	=49-	=49-	=49-	=49-	=49-
2D/	-lis	1D/	.	2B-/	-lis	.	.	.	.
!LO:TX:t=P:problem=kreska pseudotaktowa	!	!	!	!	!	!	!	!	!
2F\	.	.	.	2F/	.	1A/	.	1d\	.
1E\	.	1G/	.	1G/	.	.	.	.	.
*	*	*	*	*	*	*	*	*custos:f	*
!	!	!	!	!	!	!	!	!LO:TX:t=P:problem=kreska pseudotaktowa	!
.	.	.	.	.	.	2G/	.	2c/	.
!	!	!	!	!	!	!	!	!LO:LB:g=original	!
=50-	=50-	=50-	=50-	=50-	=50-	=50-	=50-	=50-	=50-
*	*	*	*	*	*	*	*	*clefC2	*
!	!	!	!	!	!	!	!	!LO:TX:t=P:problem=kreska pseudotaktowa	!
1D\	.	0F/	.	1A\	.	1d\	.	1f\	-lis
!LO:TX:t=P:problem=kreska pseudotaktowa	!	!	!	!	!	!	!	!	!
1r	.	.	.	1r	.	1r	.	1r	.
=51-	=51-	=51-	=51-	=51-	=51-	=51-	=51-	=51-	=51-
1GG/	q(ui)	2r	.	1d\	qui	1g\	qui	1b-\	qui
.	.	2B-/	qui	.	.	.	.	.	.
2GG/	tol-	2B-/	tol-	2d\	tol-	2g\	tol-	2b-\	tol-
1BB-/	-l(is)	1B-\	-lis	1d\	-lis	1f\	-lis	1b-\	-lis
=52-	=52-	=52-	=52-	=52-	=52-	=52-	=52-	=52-	=52-
.	.	.	.	.	.	.	.	.	.
!	!	!	!	!	!	!	!	!LO:TX:t=P:problem=kreska pseudotaktowa	!
2GG/	p(e)c-	1B-\	p(e)c-	1d\	p(e)c-	1g\	p(e)c-	2b-\	p(ec)-
2BB-/	-(ca)-	.	.	.	.	.	.	2b-\	-c(a)-
2BB-/	-ta	2B-/	-(ca)-	2d\	-(ca)-	2f\	-(ca)-	2b-\	-ta
=53-	=53-	=53-	=53-	=53-	=53-	=53-	=53-	=53-	=53-
*	*	*custos:B-	*	*	*	*	*	*	*
4BB-/	m(un)-	2B-/	-ta	2d\	-ta	2f\	-ta	1b-\	m(un)-
4C/	.	.	.	.	.	.	.	.	.
!	!	!LO:LB:g=original	!	!	!	!	!	!	!
4D/	-di	2B-/	.	2d\	mun-	2f\	mun-	.	.
*custos:F	*	*	*	*	*	*	*	*	*
!LO:TX:t=P:problem=kreska pseudotaktowa	!	!	!	!	!	!	!	!	!
4E/	.	.	.	.	.	.	.	.	.
!LO:PB:g=original	!	!	!	!	!	!	!	!LO:TX:t=P:problem=kreska pseudotaktowa	!
1F\	.	2F/	mun-	1c\	-di	1f\	-di	1a\	-di
.	.	2A/	.	.	.	.	.	.	.
=54-	=54-	=54-	=54-	=54-	=54-	=54-	=54-	=54-	=54-
!	!	!	!	!	!	!	!	!LO:TX:t=P:problem=kreska pseudotaktowa	!
1r	.	2.B-/	-di	1r	.	2r	.	1.f\	mi-
*	*	*	*	*	*	*	*ij	*	*
.	.	.	.	.	.	1d\	p(e)c-	.	.
.	.	4c\	.	.	.	.	.	.	.
2r	.	1d\	.	1B-\	.	.	.	.	.
!LO:TX:t=P:problem=kreska pseudotaktowa	!	!	!	!	!	!	!	!	!
2G\	mi-	.	.	.	.	2d\	-(ca)-	1g\	-ſe-
=55-	=55-	=55-	=55-	=55-	=55-	=55-	=55-	=55-	=55-
2E\	-ſe-	2r	.	1c\	mi-	2e\	-ta	.	.
2F\	-re-	1A\	mi-	.	.	2c/	mun-	2.a\	-re-
1D\	-re	.	.	2.d\	-ſe-	1f\	-di	.	.
*	*	*	*	*	*	*	*Xij	*	*
.	.	.	.	.	.	.	.	4g\	-re
.	.	2A/	-ſe-	.	.	.	.	4f\	.
!	!	!	!	!	!	!	!	!LO:TX:t=P:problem=kreska pseudotaktowa	!
.	.	.	.	4c\	-re-	.	.	4e\	.
=56-	=56-	=56-	=56-	=56-	=56-	=56-	=56-	=56-	=56-
!LO:TX:t=P:problem=kreska pseudotaktowa	!	!	!	!	!	!	!	!	!
1G\	.	2.B-/	-re	4B-\	-re	2r	.	1d/	.
.	.	.	.	4A/	.	.	.	.	.
.	.	.	.	1G/	.	2B-/	mi-	.	.
.	.	4A/	re	.	.	.	.	.	.
*	*	*	*	*	*	*custos:d	*	*	*
2E/	no-	2G/	.	.	.	2c/	-ſe-	2e/	.
!	!	!	!	!	!	!LO:LB:g=original	!	!LO:TX:t=P:problem=kreska pseudotaktowa	!
2D/	-bis	2F/	no-	2A/	.	2.d/	-re-	2f/	.
=57-	=57-	=57-	=57-	=57-	=57-	=57-	=57-	=57-	=57-
2.G\	.	1G/	-bis	2B-/	.	.	.	1d/	.
.	.	.	.	.	.	4c/	-re	.	.
.	.	.	.	1G/	.	4B-/	.	.	.
!LO:TX:t=P:problem=kreska pseudotaktowa	!	!	!	!	!	!	!	!	!
4F/	.	.	.	.	.	4A/	.	.	.
4E/	.	2r	.	.	.	1G/	no-	2.g\	no-
4D/	.	.	.	.	.	.	.	.	.
*	*	*	*ij	*	*	*	*	*	*
1C/	.	1E/	mi-	2.c\	no-	.	.	.	.
.	.	.	.	.	.	.	.	4f/	.
=58-	=58-	=58-	=58-	=58-	=58-	=58-	=58-	=58-	=58-
.	.	.	.	.	.	2.c/	-bis	4e/	.
!	!	!	!	!	!	!	!	!LO:TX:t=P:problem=kreska pseudotaktowa	!
.	.	.	.	4B-/	.	.	.	4d/	.
*	*	*	*	*	*	*	*	*custos:d	*
1F\	.	2.F/	.	4A/	.	.	.	1c/	.
*	*	*	*	*custos:F	*	*	*	*	*
.	.	.	.	4G/	.	4B-/	.	.	.
!	!	!	!	!LO:LB:g=original	!	!	!	!	!
.	.	.	.	1F/	.	4A/	.	.	.
.	.	4E/	.	.	.	4G/	.	.	.
!LO:TX:t=P:problem=kreska pseudotaktowa	!	!	!	!	!LO:LB:g=original	!	!	!	!
2D/	.	2F/	.	.	.	2F/	.	2d/	.
=59-	=59-	=59-	=59-	=59-	=59-	=59-	=59-	=59-	=59-
!	!	!	!	!	!	!	!	!LO:TX:t=P:problem=kreska pseudotaktowa	!
2C/	.	2E/	-ſe-	2G/	.	1c\	.	2e/	.
1F\	.	2.A/	-re-	2A/	.	.	.	1c/	.
.	.	.	.	1F/	.	2A/	.	.	.
.	.	4G/	.	.	.	.	.	.	.
!LO:TX:t=P:problem=kreska pseudotaktowa	!	!	!	!	!	!	!	!	!
2D/	.	2F/	.	.	.	2B-/	.	2d/	.
=60-	=60-	=60-	=60-	=60-	=60-	=60-	=60-	=60-	=60-
!	!	!	!	!	!	!	!	!LO:TX:t=P:problem=kreska pseudotaktowa	!
2C/	.	2E/	-re	2G/	.	1c\	.	2e/	.
2F\	.	2A/	no-	2A/	.	.	.	1f\	.
2D/	.	2F/	.	1B-\	.	1d\	.	.	.
2.G\	.	1G/	.	.	.	.	.	1d/	.
=61-	=61-	=61-	=61-	=61-	=61-	=61-	=61-	=61-	=61-
.	.	.	.	1G/	-bis	2B-/	.	.	-­-
4F\	.	.	.	.	.	.	.	.	.
*	*	*2\right	*	*	*	*	*	*	*
2E/	.	2c\	.	.	.	2c/	.	1g\	-bis
[1D\l	.	1A\	.	1A\	.	1d\	.	.	.
.	.	.	.	.	.	.	.	2f\	.
=62-	=62-	=62-	=62-	=62-	=62-	=62-	=62-	=62-	=62-
*	*	*	*	*custos:G	*	*	*	*	*
!	!	!	!	!LO:TX:t=P:problem=kustosz "z przyzwyczajenia" - bo na następnej stronie jest tenor drugi, a nie dalszy ciąg tenoru pierwszego	!	!	!	!	!
0D\]	.	0B-\l	-bis	0G\l	.	0d\l	.	0g\;l	.
==	==	==	==	==	==	==	==	==	==
*-	*-	*-	*-	*-	*-	*-	*-	*-	*-
!!!system-decoration: [(*)]
!!!RDF**kern: l = terminal long
!!!ENC: Mateusz Solarz
!!!END: 2022-02-18
!!!EED: Andrzej Borzym
!!!EEV: 2022-02-28
!!!YEC: Copyright 2022 Narodowy Instytut Fryderyka Chopina (https://polishscores.org)
!!!YEM: Licence CC BY 4.0 (https://creativecommons.org/licenses/by/4.0)
